X:5
T:Bear Island
S:Bernie Waugh
R:Reel
M:4/4
L:1/8
K:E minor
|:\
"E"EB^GB AGE^c|dB^cA Beec|"D"d2fd AFDF|GEFD E2BA|
"C"B~EEF GFGA|"(Am)"B2~BA Bdef|"Bm"(3gagfg "C"(3efgfe|"D"dBAF "Em"E4:|
|:\
"Em"Beef gefd|"D"BGAG FA D2|"Em"Beef gefd|"B7"Be^df "Em(A7)"e3f|
"Em"edB^c "D"decd|"Bm"B^cdB AFDF|"C"G2(3BcB AFDF|"D"GEFD "Em"E4:|

